X:1
T:Waverton, 66.66.88
T:Waverton, 66.66.88
T:Robert Jackson, 1876
T:Public Domain Courtesy of the Cyber Hymnal™
C:Robert Jackson, 1876
Z:Public Domain
Z:Courtesy of the Cyber Hymnal™
%%score ( 1 2 ) ( 3 4 )
L:1/8
Q:1/4=115
M:4/4
K:D
V:1 treble 
V:2 treble 
V:3 bass 
V:4 bass 
V:1
 [DF]2 | [DF]3 [DF] [DG]2 [DG]2 | [EG]6 [EG]2 | [DF]3 [CF] [B,B]2 B2 | [CE]6 [DF]2 | %5
 [DF]3 [DF] [DF]2 [DF]2 | [EF]6 [EF]2 | [DF]3 [DF] [B,D]2 E2 | [CF]6 [CA]2 | %9
 [DF]3 [CA] [Dd]2 [Fd]2 | [Ae]2 [Ac]2 [Ad]2 [GB]2 | [EA]3 [EG] [DF]2 [DG]2 | [DA]4 G2 E2 | D6 |] %14
V:2
 x2 | x8 | x8 | x6 (ED) | x8 | x8 | x8 | x6 E2 | x8 | x8 | x8 | x8 | x4 C4 | D6 |] %14
V:3
 [D,A,]2 | [D,A,]3 [D,A,] [D,B,]2 [D,_B,]2 | [C,A,]6 [C,A,]2 | [D,A,]3 [D,A,] [G,,G,]2 [G,,E,]2 | %4
 [A,,A,]6 [D,A,]2 | [D,A,]3 [D,A,] [B,,B,]2 [B,,B,]2 | [^A,,C]6 [A,,C]2 | %7
 [B,,B,]3 [D,B,] [G,D]2 (CB,) | [F,^A,]6 [^A,,=A,]2 | [D,A,]3 [E,A,] [F,A,]2 [D,A,]2 | %10
 [A,C]2 [G,E]2 [F,D]2 [G,D]2 | [C,A,]3 [C,A,] [D,A,]2 [B,,G,]2 | [A,,F,]4 (E,2 G,2) | [D,F,]6 |] %14
V:4
 x2 | x8 | x8 | x8 | x8 | x8 | x8 | x6 G,2 | x8 | x8 | x8 | x8 | x4 A,,4 | x6 |] %14

